arrow.33372fd1.svg

<svg width="102" height="167" viewBox="0 0 102 167" fill="none" xmlns="http://www.w3.org/2000/svg">
<g clip-path="url('#clip0_750_351')">
<path d="M101.702 151C101.602 150.8 101.402 150.5 101.202 150.4C98.7016 149.1 95.6016 148.9 92.8016 148.4L87.0016 147.3C87.6016 144.6 88.1016 141.9 88.4016 139.3C88.5016 138.2 87.8016 137.2 86.7016 137.1C85.6016 137 84.6016 137.7 84.5016 138.8C84.2016 141.3 83.7016 143.9 83.2016 146.5C78.3016 145.5 73.4016 144.5 68.5016 143.5C68.3016 143.3 68.1016 143 67.9016 142.8C66.5016 141.3 63.8016 143.1 64.9016 144.9C68.8016 151.3 72.5016 158.4 77.3016 164.2H77.4016C77.5016 164.4 77.7016 164.5 77.9016 164.5V164.6C78.0016 165.3 78.4016 165.9 79.1016 166.2C79.3016 166.3 79.6016 166.3 79.8016 166.3C80.3016 166.3 80.7016 166.1 81.1016 165.8L90.5016 160.2C93.4016 158.4 97.2016 156.9 99.5016 154.3C99.7016 154.1 99.9016 153.8 99.9016 153.4C99.9016 153.2 99.9016 153.1 99.9016 152.9C100.202 152.9 100.402 152.9 100.702 152.8C101.002 152.7 101.202 152.6 101.402 152.4C101.602 152.2 101.702 152 101.702 151.7C101.802 151.5 101.802 151.2 101.702 151ZM88.7016 156.9L80.4016 161.9C77.8016 156.3 74.5016 151 70.6016 146.2C74.5016 147.4 78.4016 148.5 82.4016 149.5C82.3016 150.1 82.1016 150.7 81.9016 151.3C81.6016 152.4 82.2016 153.5 83.3016 153.7C83.5016 153.7 83.6016 153.8 83.8016 153.8C84.7016 153.8 85.5016 153.2 85.7016 152.3C85.9016 151.7 86.0016 151 86.2016 150.4C88.4016 150.9 90.7016 151.4 92.9016 151.9C93.9016 152.1 94.8016 152.3 95.8016 152.6C93.4016 153.7 91.0016 155.5 88.7016 156.9Z" fill="#F2F6E6"></path>
<path d="M43.4014 58.1C42.3014 58.1 41.4014 59 41.4014 60.1C41.4014 60.7 41.4014 61.2 41.4014 61.8C41.4014 66.5 41.1014 70.4 40.8014 72.9C40.7014 74 41.5014 75 42.6014 75.1C42.7014 75.1 42.7014 75.1 42.8014 75.1C43.8014 75.1 44.7014 74.3 44.8014 73.3C45.2014 69.5 45.4014 65.7 45.4014 61.8C45.4014 61.2 45.4014 60.7 45.4014 60.1C45.4014 58.9 44.5014 58 43.4014 58.1Z" fill="#F2F6E6"></path>
<path d="M42.3007 49.1C42.4007 49.1 42.5007 49.1 42.6007 49.1C43.7007 48.9 44.4007 47.9 44.3007 46.8C43.6007 42.2 42.5007 37.8 41.1007 33.8C40.7007 32.8 39.6007 32.2 38.6007 32.6C37.6007 33 37.0007 34.1 37.4007 35.1C38.7007 38.9 39.7007 43 40.4007 47.4C40.5007 48.4 41.4007 49.1 42.3007 49.1Z" fill="#F2F6E6"></path>
<path d="M63.5016 81.3C59.6016 79.3 55.3016 77.8 50.7016 76.9C49.6016 76.7 48.6016 77.4 48.3016 78.5C48.1016 79.6 48.8016 80.6 49.9016 80.9C54.1016 81.7 58.0016 83.1 61.6016 85C61.9016 85.2 62.2016 85.2 62.5016 85.2C63.2016 85.2 63.9016 84.8 64.3016 84.1C64.8016 83 64.5016 81.8 63.5016 81.3Z" fill="#F2F6E6"></path>
<path d="M85.0018 126.1C85.0018 127.2 85.9018 128 87.0018 128H87.1018C88.2018 128 89.1018 127 89.0018 125.9C88.8018 121.3 88.2018 116.8 87.2018 112.6C86.9018 111.5 85.9018 110.9 84.8018 111.1C83.7018 111.4 83.1018 112.4 83.3018 113.5C84.3018 117.6 84.9018 121.8 85.0018 126.1Z" fill="#F2F6E6"></path>
<path d="M26.5005 11.5C25.7005 10.8 24.4005 10.9 23.7005 11.7C23.0005 12.5 23.1005 13.8 23.9005 14.5C27.0005 17.2 29.7005 20.3 32.0005 23.9C32.4005 24.5 33.0005 24.8 33.7005 24.8C34.1005 24.8 34.4005 24.7 34.8005 24.5C35.7005 23.9 36.0005 22.7 35.4005 21.7C32.8005 17.9 29.9005 14.4 26.5005 11.5Z" fill="#F2F6E6"></path>
<path d="M78.9 102C79.3 102.7 80 103.1 80.7 103.1C81 103.1 81.3 103 81.6 102.9C82.6 102.4 82.9 101.2 82.4 100.2C80.2 96.1 77.5 92.5 74.4 89.3C73.6 88.5 72.4 88.5 71.6 89.3C70.8 90.1 70.8 91.3 71.6 92.1C74.5 95 76.9 98.3 78.9 102Z" fill="#F2F6E6"></path>
<path d="M15.2008 4.2C11.3008 2.4 7.00085 0.999995 2.40085 -4.54485e-06C1.30085 -0.200005 0.30085 0.499995 0.000849947 1.6C-0.19915 2.7 0.50085 3.7 1.60085 4C5.90085 4.9 9.90085 6.2 13.5008 7.8C13.8008 7.9 14.0008 8 14.3008 8C15.1009 8 15.8009 7.6 16.1009 6.8C16.6009 5.8 16.2008 4.6 15.2008 4.2Z" fill="#F2F6E6"></path>
</g>
<defs>
<clipPath id="clip0_750_351">
<rect width="101.8" height="166.3" fill="white"></rect>
</clipPath>
</defs>
</svg>

<svg width="102" height="167" fill="none" xmlns="http://www.w3.org/2000/svg"><g clip-path="url('#a')" fill="#F2F6E6"><path d="M101.7 151c-.1-.2-.3-.5-.5-.6-2.5-1.3-5.6-1.5-8.4-2l-5.8-1.1c.6-2.7 1.1-5.4 1.4-8 .1-1.1-.6-2.1-1.7-2.2-1.1-.1-2.1.6-2.2 1.7-.3 2.5-.8 5.1-1.3 7.7l-14.7-3c-.2-.2-.4-.5-.6-.7-1.4-1.5-4.1.3-3 2.1 3.9 6.4 7.6 13.5 12.4 19.3h.1c.1.2.3.3.5.3v.1c.1.7.5 1.3 1.2 1.6.2.1.5.1.7.1.5 0 .9-.2 1.3-.5l9.4-5.6c2.9-1.8 6.7-3.3 9-5.9.2-.2.4-.5.4-.9v-.5c.3 0 .5 0 .8-.1.3-.1.5-.2.7-.4.2-.2.3-.4.3-.7.1-.2.1-.5 0-.7Zm-13 5.9-8.3 5c-2.6-5.6-5.9-10.9-9.8-15.7 3.9 1.2 7.8 2.3 11.8 3.3-.1.6-.3 1.2-.5 1.8-.3 1.1.3 2.2 1.4 2.4.2 0 .3.1.5.1.9 0 1.7-.6 1.9-1.5.2-.6.3-1.3.5-1.9l6.7 1.5c1 .2 1.9.4 2.9.7-2.4 1.1-4.8 2.9-7.1 4.3ZM43.4 58.1a2 2 0 0 0-2 2v1.7c0 4.7-.3 8.6-.6 11.1-.1 1.1.7 2.1 1.8 2.2h.2c1 0 1.9-.8 2-1.8.4-3.8.6-7.6.6-11.5v-1.7c0-1.2-.9-2.1-2-2ZM42.3 49.1h.3a2.1 2.1 0 0 0 1.7-2.3c-.7-4.6-1.8-9-3.2-13-.4-1-1.5-1.6-2.5-1.2-1 .4-1.6 1.5-1.2 2.5 1.3 3.8 2.3 7.9 3 12.3.1 1 1 1.7 1.9 1.7ZM63.5 81.3c-3.9-2-8.2-3.5-12.8-4.4-1.1-.2-2.1.5-2.4 1.6-.2 1.1.5 2.1 1.6 2.4 4.2.8 8.1 2.2 11.7 4.1.3.2.6.2.9.2.7 0 1.4-.4 1.8-1.1.5-1.1.2-2.3-.8-2.8ZM85 126.1c0 1.1.9 1.9 2 1.9h.1c1.1 0 2-1 1.9-2.1-.2-4.6-.8-9.1-1.8-13.3-.3-1.1-1.3-1.7-2.4-1.5-1.1.3-1.7 1.3-1.5 2.4 1 4.1 1.6 8.3 1.7 12.6ZM26.5 11.5c-.8-.7-2.1-.6-2.8.2-.7.8-.6 2.1.2 2.8 3.1 2.7 5.8 5.8 8.1 9.4.4.6 1 .9 1.7.9.4 0 .7-.1 1.1-.3.9-.6 1.2-1.8.6-2.8-2.6-3.8-5.5-7.3-8.9-10.2ZM78.9 102c.4.7 1.1 1.1 1.8 1.1.3 0 .6-.1.9-.2 1-.5 1.3-1.7.8-2.7-2.2-4.1-4.9-7.7-8-10.9-.8-.8-2-.8-2.8 0-.8.8-.8 2 0 2.8 2.9 2.9 5.3 6.2 7.3 9.9ZM15.2 4.2C11.3 2.4 7 1 2.4 0 1.3-.2.3.5 0 1.6-.2 2.7.5 3.7 1.6 4c4.3.9 8.3 2.2 11.9 3.8.3.1.5.2.8.2.8 0 1.5-.4 1.8-1.2.5-1 .1-2.2-.9-2.6Z"></path></g><defs><clipPath id="a"><path fill="#fff" d="M0 0h101.8v166.3H0z"></path></clipPath></defs></svg>
